icons/chevron-bar-out-down.svg

<svg xmlns="http://www.w3.org/2000/svg" width="24" height="24" viewBox="0 0 24 24">
  <path d="M5.38710056,11.2097046 C5.77939176,10.9046797 6.34662282,10.9324093 6.70710678,11.2928932 L6.70710678,11.2928932 L12,16.585 L17.2928932,11.2928932 L17.3871006,11.2097046 C17.7793918,10.9046797 18.3466228,10.9324093 18.7071068,11.2928932 C19.0976311,11.6834175 19.0976311,12.3165825 18.7071068,12.7071068 L18.7071068,12.7071068 L12.7071068,18.7071068 L12.6128994,18.7902954 C12.2206082,19.0953203 11.6533772,19.0675907 11.2928932,18.7071068 L11.2928932,18.7071068 L5.29289322,12.7071068 L5.20970461,12.6128994 C4.90467972,12.2206082 4.93240926,11.6533772 5.29289322,11.2928932 L5.29289322,11.2928932 Z M21,5 C21.5522847,5 22,5.44771525 22,6 C22,6.51283584 21.6139598,6.93550716 21.1166211,6.99327227 L21,7 L3,7 C2.44771525,7 2,6.55228475 2,6 C2,5.48716416 2.38604019,5.06449284 2.88337887,5.00672773 L3,5 L21,5 Z"/>
</svg>

<svg xmlns="http://www.w3.org/2000/svg" viewBox="0 0 24 24">
  <path d="M5.39 11.21a1 1 0 0 1 1.32.08L12 16.6l5.3-5.3.09-.08a1 1 0 0 1 1.32 1.5l-6 6-.1.08a1 1 0 0 1-1.32-.08l-6-6-.08-.1a1 1 0 0 1 .08-1.32zM21 5a1 1 0 0 1 .12 2H3a1 1 0 0 1-.12-2H21z"/>
</svg>
